X: 58
T: Black and Grey
P: Longways for as many as will
%R: reel
B: "The Compleat Country Dancing-Master" printed by John Walsh, London ca. 1740
S: 6: CCDM1 http://imslp.org/wiki/The_Compleat_Country_Dancing-Master_(Various) V.1 p.42 #81
B: "The Dancing-Master: Containing Directions and Tunes for Dancing" printed by W. Pearson for John Walsh, London ca. 1709
S: 7: DMDfD http://digital.nls.uk/special-collections-of-printed-music/pageturner.cfm?id=89751228 p.127 "M 4"
Z: 2013 John Chambers <jc:trillian.mit.edu>
N: The tune and dance are the same in both books, except for minor spelling and punctuation differences.
M: C|
L: 1/8
K: Am
% - - - - - - - - - - - - - - - - - - - - - - - - -
[|\
A2A2 d2B2 | c4 A2d2 | B4 G2g2 | B4 G4 |\
A2A2 d2B2 | c3B A2d2 | B2G2 (Bc)(dc) | A4 e4 |]
[|\
a2e2 (fe)(dc) | a2e2 (fe)(dc) | g2d2 (Bc)(dB) | g2d2 (Bc)(dB) |\
a2e2 (fg)(ag) | (ag)(fe) (fe)(dc) | B2G2 (Bc)(dB) | A4 e4 |]
% - - - - - - - - Dance description - - - - - - - -
%%begintext align
%% The 1st and 2d Cu. take Hands and go quite round and cast off,
%% then the 2d and 3d Cu. take hands and go quite round and
%% cast off, the 2d Cu. being now in the 3d Cu. Place, the 1st Man
%% turn the 3d Wo. and the 1st Wo. turn the 3d Man with the
%% right Hand at the same Time, then each turn their own with
%% the Left; then the 1st Man turn the 2d Wo. and the 1st Wo.
%% turn the 2d Man with the right Hand, and then turn their
%% own with the Left, 'till they are in their Places.
%% [CCDM1]
%%endtext
%%sep 1 8 500

%%sep 1 1 500
%%sep 1 1 500
